svg/fluentui-system-icons/ic_fluent_arrow_sort_down_lines_20_filled.svg

<svg width="20" height="20" viewBox="0 0 20 20" fill="none" xmlns="http://www.w3.org/2000/svg">
<path d="M6.75 17C6.98488 17 7.20201 16.8917 7.33931 16.7223L10.2807 13.7765C10.5731 13.4837 10.5731 13.0088 10.2807 12.7159C9.9882 12.423 9.51403 12.423 9.22157 12.7159L7.5 14.4336V3.75C7.5 3.33579 7.1636 3 6.75 3C6.3364 3 6 3.33579 6 3.75V14.4441L4.27843 12.7114C3.98597 12.4185 3.5118 12.4185 3.21934 12.7114C2.92689 13.0043 2.92688 13.4791 3.21934 13.772L6.2232 16.7803C6.37038 16.9277 6.55709 17.001 6.75 17ZM9.75 4C9.33579 4 9 4.33579 9 4.75C9 5.16421 9.33579 5.5 9.75 5.5H16.25C16.6642 5.5 17 5.16421 17 4.75C17 4.33579 16.6642 4 16.25 4H9.75ZM9.75 7C9.33579 7 9 7.33579 9 7.75C9 8.16421 9.33579 8.5 9.75 8.5H14.25C14.6642 8.5 15 8.16421 15 7.75C15 7.33579 14.6642 7 14.25 7H9.75ZM9.75 10C9.33579 10 9 10.3358 9 10.75C9 11.1642 9.33579 11.5 9.75 11.5H11.25C11.6642 11.5 12 11.1642 12 10.75C12 10.3358 11.6642 10 11.25 10H9.75Z" fill="#212121"/>
</svg>

<svg xmlns="http://www.w3.org/2000/svg" width="20" height="20"><path d="M6.75 17a.762.762 0 0 0 .59-.278l2.94-2.946a.75.75 0 0 0 0-1.06.748.748 0 0 0-1.058 0L7.5 14.434V3.75a.75.75 0 0 0-1.5 0v10.694l-1.722-1.733a.748.748 0 0 0-1.059 0 .75.75 0 0 0 0 1.061l3.004 3.008a.73.73 0 0 0 .527.22Zm3-13a.75.75 0 0 0 0 1.5h6.5a.75.75 0 0 0 0-1.5h-6.5Zm0 3a.75.75 0 0 0 0 1.5h4.5a.75.75 0 0 0 0-1.5h-4.5Zm0 3a.75.75 0 0 0 0 1.5h1.5a.75.75 0 0 0 0-1.5h-1.5Z"/></svg>
